X: 19
T:When Chloe
M:3/4
L:1/4
R:Waltz
N:Posted to tradtunes 29/12/2001
Z:Steve Mansfield June 2001
K:G
G/G/ | GD B/B/ | BA B/c/ | dcB | A>A B/c/ |
dA A/B/ | ADE | D>D D | D2 :: D/E/ |
F D/F/A/c/ | F F/E/ D | EcB | A>A B/c/ |
dG A/B/ | ADF | G>G G | G2 :|
<end>
<start>
